source/svgs/bowtie/uE008-select-all-items.svg

<svg xmlns="http://www.w3.org/2000/svg" viewBox="0 0 448 448" enable-background="new 0 0 448 448"><path d="M192 192h-192v-192h192v192zm-128-64h64v-64h-64v64zm384 64h-192v-192h192v192zm-128-64h64v-64h-64v64zm128 320h-192v-192h192v192zm-128-64h64v-64h-64v64zm-128 64h-192v-192h192v192zm-128-64h64v-64h-64v64z"/></svg>

<svg xmlns="http://www.w3.org/2000/svg" viewBox="0 0 448 448"><path d="M192 192H0V0h192v192zM64 128h64V64H64v64zm384 64H256V0h192v192zm-128-64h64V64h-64v64zm128 320H256V256h192v192zm-128-64h64v-64h-64v64zm-128 64H0V256h192v192zM64 384h64v-64H64v64z"/></svg>
